icons/desktop/16/svg/downloaded-file-16.svg

<svg width="16" height="16" viewBox="0 0 16 16" fill="none" xmlns="http://www.w3.org/2000/svg">
<g clip-path="url(#clip0_8069_32512)">
<path d="M14.502 14.5C14.9162 14.5 15.252 14.8358 15.252 15.25C15.252 15.6642 14.9162 16 14.502 16H10.002C9.58777 16 9.25195 15.6642 9.25195 15.25C9.25195 14.8358 9.58777 14.5 10.002 14.5H14.502Z" fill="black"/>
<path d="M7.80273 0.0146484C8.31366 0.0286465 8.80013 0.237703 9.16211 0.599609L12.4072 3.84473C12.7812 4.21868 12.9921 4.7269 12.9941 5.25684V6.49902H11.5V5.49902H8.5C7.948 5.49902 7.5 5.05102 7.5 4.49902V1.51172C7.335 1.50772 7.156 1.49902 7 1.49902C5.85413 1.49902 4.69924 1.57281 3.56836 1.71777C2.95336 1.79677 2.50001 2.33701 2.5 2.95801V12.042C2.5 12.671 2.9622 13.2042 3.5752 13.2822C5.03513 13.4692 6.52307 13.514 8 13.459V14.9707C7.667 14.9847 7.333 14.999 7 14.999C5.795 14.999 4.57874 14.9225 3.38574 14.7705C2.02484 14.5974 1 13.424 1 12.041V2.96875C1.00015 1.60294 2.11392 0.386875 3.46973 0.217773C4.63273 0.0727734 5.821 -0.000976562 7 -0.000976562C7.16795 -0.000976562 7.49082 0.00665079 7.80273 0.0146484Z" fill="black"/>
<path d="M12.252 8C12.666 8 13.002 8.336 13.002 8.75V10.999H14.3604L14.3594 11C14.7091 11.0003 14.8836 11.423 14.6367 11.6699L12.5312 13.7764C12.3782 13.9293 12.1286 13.9294 11.9756 13.7764L9.86914 11.6689C9.62214 11.4219 9.79746 10.999 10.1475 10.999H11.502V8.75C11.502 8.33602 11.838 8.00003 12.252 8Z" fill="black"/>
</g>
<defs>
<clipPath id="clip0_8069_32512">
<rect width="16" height="16" fill="white"/>
</clipPath>
</defs>
</svg>

<!-- This Source Code Form is subject to the terms of the Mozilla Public
   - License, v. 2.0. If a copy of the MPL was not distributed with this
   - file, You can obtain one at http://mozilla.org/MPL/2.0/. -->
<svg xmlns="http://www.w3.org/2000/svg" width="16" height="16" fill="context-fill" fill-opacity="context-fill-opacity" viewBox="0 0 16 16">
    <g clip-path="url(#clip0_8069_32512)">
        <path d="M14.502 14.5a.75.75 0 0 1 0 1.5h-4.5a.75.75 0 1 1 0-1.5zM7.803.015A2 2 0 0 1 9.163.6l3.244 3.245c.374.374.585.882.587 1.412v1.242H11.5v-1h-3a1 1 0 0 1-1-1V1.512c-.165-.004-.344-.013-.5-.013-1.146 0-2.3.074-3.432.219-.615.079-1.068.619-1.068 1.24v9.084c0 .629.462 1.162 1.075 1.24 1.46.187 2.948.232 4.425.177v1.512c-.333.014-.667.028-1 .028-1.205 0-2.421-.077-3.614-.229A2.75 2.75 0 0 1 1 12.042V2.969C1 1.603 2.114.387 3.47.218A29 29 0 0 1 7-.001c.168 0 .49.008.803.016" />
        <path d="M12.252 8a.75.75 0 0 1 .75.75v2.249h1.358V11c.35 0 .524.423.277.67l-2.106 2.106a.394.394 0 0 1-.555 0L9.869 11.67a.393.393 0 0 1 .279-.67h1.354V8.75a.75.75 0 0 1 .75-.75" />
    </g>
</svg>
